icons/confluence/confluence-original.svg

<?xml version="1.0" encoding="UTF-8"?>
<svg xmlns="http://www.w3.org/2000/svg" xmlns:xlink="http://www.w3.org/1999/xlink" width="128px" height="px" viewBox="0 0 128 128" version="1.1">
<defs>
<linearGradient id="linear0" gradientUnits="userSpaceOnUse" x1="26.7906" y1="28.4674" x2="11.7924" y2="19.8546" gradientTransform="matrix(4,0,0,4,0,0)">
<stop offset="0" style="stop-color:rgb(0%,32.156863%,80%);stop-opacity:1;"/>
<stop offset="0.9182" style="stop-color:rgb(13.72549%,50.196078%,98.431373%);stop-opacity:1;"/>
<stop offset="1" style="stop-color:rgb(14.901961%,51.764706%,100%);stop-opacity:1;"/>
</linearGradient>
<linearGradient id="linear1" gradientUnits="userSpaceOnUse" x1="5.20945" y1="2.52323" x2="20.2079" y2="11.1361" gradientTransform="matrix(4,0,0,4,0,0)">
<stop offset="0" style="stop-color:rgb(0%,32.156863%,80%);stop-opacity:1;"/>
<stop offset="0.9182" style="stop-color:rgb(13.72549%,50.196078%,98.431373%);stop-opacity:1;"/>
<stop offset="1" style="stop-color:rgb(14.901961%,51.764706%,100%);stop-opacity:1;"/>
</linearGradient>
</defs>
<g id="surface1">
<path style=" stroke:none;fill-rule:nonzero;fill:url(#linear0);" d="M 19.492188 86.226562 C 18.476562 87.824219 17.316406 89.710938 16.445312 91.160156 C 15.578125 92.609375 16.011719 94.496094 17.460938 95.367188 L 37.324219 107.554688 C 38.773438 108.425781 40.65625 107.988281 41.527344 106.539062 C 42.253906 105.230469 43.269531 103.492188 44.425781 101.605469 C 52.257812 88.695312 60.230469 90.144531 74.4375 96.964844 L 94.15625 106.246094 C 95.75 106.972656 97.492188 106.246094 98.214844 104.796875 L 107.640625 83.472656 C 108.363281 82.019531 107.640625 80.136719 106.1875 79.410156 C 101.984375 77.523438 93.722656 73.605469 86.472656 69.980469 C 59.652344 57.066406 36.886719 57.9375 19.492188 86.226562 Z M 19.492188 86.226562 "/>
<path style=" stroke:none;fill-rule:nonzero;fill:url(#linear1);" d="M 108.507812 37.773438 C 109.523438 36.175781 110.683594 34.289062 111.554688 32.839844 C 112.425781 31.390625 111.988281 29.503906 110.539062 28.632812 L 90.675781 16.445312 C 89.226562 15.574219 87.34375 16.011719 86.472656 17.460938 C 85.746094 18.769531 84.734375 20.507812 83.574219 22.394531 C 75.742188 35.304688 67.769531 33.855469 53.5625 27.035156 L 33.84375 17.753906 C 32.25 17.027344 30.511719 17.753906 29.785156 19.203125 L 20.363281 40.527344 C 19.636719 41.980469 20.363281 43.867188 21.8125 44.589844 C 26.015625 46.476562 34.28125 50.394531 41.527344 54.019531 C 68.351562 66.789062 91.113281 66.0625 108.507812 37.773438 Z M 108.507812 37.773438 "/>
</g>
</svg>

<svg xmlns="http://www.w3.org/2000/svg" viewBox="0 0 128 128"><defs><linearGradient id="confluence-original-a" gradientUnits="userSpaceOnUse" x1="26.791" y1="28.467" x2="11.792" y2="19.855" gradientTransform="scale(4)"><stop offset="0" stop-color="#0052cc"/><stop offset=".918" stop-color="#2380fb"/><stop offset="1" stop-color="#2684ff"/></linearGradient><linearGradient id="confluence-original-b" gradientUnits="userSpaceOnUse" x1="5.209" y1="2.523" x2="20.208" y2="11.136" gradientTransform="scale(4)"><stop offset="0" stop-color="#0052cc"/><stop offset=".918" stop-color="#2380fb"/><stop offset="1" stop-color="#2684ff"/></linearGradient></defs><path d="M19.492 86.227a249.047 249.047 0 00-3.047 4.933c-.867 1.45-.433 3.336 1.016 4.207l19.863 12.188c1.45.87 3.332.433 4.203-1.016a139.349 139.349 0 012.899-4.934c7.832-12.91 15.804-11.46 30.011-4.64l19.72 9.281c1.593.727 3.335 0 4.058-1.45l9.426-21.323c.722-1.453 0-3.336-1.454-4.063-4.203-1.887-12.464-5.805-19.714-9.43-26.82-12.914-49.586-12.043-66.98 16.247zm0 0" fill="url(#confluence-original-a)"/><path d="M108.508 37.773a249.047 249.047 0 003.047-4.933c.87-1.45.433-3.336-1.016-4.207L90.676 16.445c-1.45-.87-3.332-.433-4.203 1.016a133.55 133.55 0 01-2.899 4.934c-7.832 12.91-15.804 11.46-30.011 4.64l-19.72-9.281c-1.593-.727-3.331 0-4.058 1.45l-9.422 21.323c-.726 1.453 0 3.34 1.45 4.063 4.203 1.887 12.468 5.805 19.714 9.43 26.825 12.77 49.586 12.042 66.98-16.247zm0 0" fill="url(#confluence-original-b)"/></svg>
